storage/app/icons/phosphoricons/fill/washing-machine-fill.svg

<svg xmlns="http://www.w3.org/2000/svg" fill="currentColor" viewBox="0 0 256 256"><path d="M208 32H48a16 16 0 0 0-16 16v160a16 16 0 0 0 16 16h160a16 16 0 0 0 16-16V48a16 16 0 0 0-16-16m-80 152a56 56 0 1 1 56-56 56 56 0 0 1-56 56m60-104a12 12 0 1 1 12-12 12 12 0 0 1-12 12m-54.34 29.66-32 32a8 8 0 0 1-11.32-11.32l32-32a8 8 0 0 1 11.32 11.32m32-3.32a8 8 0 0 1 0 11.32l-48 48a8 8 0 0 1-11.32-11.32l48-48a8 8 0 0 1 11.32 0"/></svg>

<svg xmlns="http://www.w3.org/2000/svg" viewBox="0 0 256 256" fill="currentColor"><path d="M208,32H48A16,16,0,0,0,32,48V208a16,16,0,0,0,16,16H208a16,16,0,0,0,16-16V48A16,16,0,0,0,208,32ZM128,184a56,56,0,1,1,56-56A56,56,0,0,1,128,184ZM188,80a12,12,0,1,1,12-12A12,12,0,0,1,188,80Zm-54.34,29.66-32,32a8,8,0,0,1-11.32-11.32l32-32a8,8,0,0,1,11.32,11.32Zm32-3.32a8,8,0,0,1,0,11.32l-48,48a8,8,0,0,1-11.32-11.32l48-48A8,8,0,0,1,165.66,106.34Z"/></svg>
